X:30
T:Apprends nous Seigneur
M:2/4
L:1/8
K:Cm
CDEF|G2CC|AABF|G4|FGAF|E2CC|EEDE|C3||
G|ccBA|G3G|FAGF|E3E|AAAA|G3G|AGFE|F4:|
